fs/text_superscript_24_regular.svg

<svg viewBox="0 0 24 24" fill="none" xmlns="http://www.w3.org/2000/svg" height="1em" width="1em">
  <path d="M18.7358 3.5C18.1935 3.5 17.75 3.99503 17.75 4.52273C17.75 4.93694 17.4142 5.27273 17 5.27273C16.5858 5.27273 16.25 4.93694 16.25 4.52273C16.25 3.27769 17.2582 2 18.7358 2C19.591 2 20.4204 2.39999 20.8865 3.11661C21.3753 3.86797 21.3858 4.84107 20.8289 5.789C20.5445 6.27315 20.1557 6.63637 19.7837 6.93019C19.5972 7.07753 19.4054 7.21448 19.2269 7.34071L19.1493 7.3955C18.996 7.50364 18.8541 7.60378 18.7166 7.70723C18.3606 7.97516 18.0984 8.21821 17.9377 8.5H20.4506C20.8648 8.5 21.2006 8.83579 21.2006 9.25C21.2006 9.66421 20.8648 10 20.4506 10H17.0164L17.0082 9.99996L17 10C16.5858 10 16.25 9.66421 16.25 9.25C16.25 7.85365 17.0711 7.06828 17.8147 6.50868C17.9721 6.39023 18.1351 6.27527 18.2873 6.16787L18.3611 6.11579C18.5385 5.99042 18.7016 5.87346 18.854 5.75305C19.16 5.51135 19.3861 5.28367 19.5356 5.02918C19.8466 4.49984 19.765 4.1434 19.6292 3.93452C19.4707 3.69092 19.1429 3.5 18.7358 3.5ZM15.26 4.71092C15.3199 5.27162 15.6447 5.75312 16.1068 6.02791L10.9879 11.9999L16.5696 18.5119C16.8392 18.8264 16.8028 19.2999 16.4883 19.5695C16.1738 19.839 15.7003 19.8026 15.4307 19.4881L10.0001 13.1524L4.56946 19.4881C4.29989 19.8026 3.82641 19.839 3.51192 19.5695C3.19743 19.2999 3.161 18.8264 3.43057 18.5119L9.01228 11.9999L3.43073 5.48811C3.16116 5.17361 3.19758 4.70014 3.51208 4.43057C3.82657 4.161 4.30005 4.19743 4.56961 4.51192L10.0001 10.8475L15.26 4.71092Z" fill="#212121"/>
</svg>

<svg viewBox="0 0 24 24" fill="none" xmlns="http://www.w3.org/2000/svg" height="1em" width="1em">
  <path d="M18.736 3.5c-.543 0-.986.495-.986 1.023a.75.75 0 0 1-1.5 0C16.25 3.278 17.258 2 18.736 2c.855 0 1.684.4 2.15 1.117.49.751.5 1.724-.057 2.672-.285.484-.673.847-1.045 1.141-.187.148-.379.284-.557.41l-.078.056a17.45 17.45 0 0 0-.432.311c-.356.268-.619.511-.78.793h2.514a.75.75 0 0 1 0 1.5H17a.75.75 0 0 1-.75-.75c0-1.396.821-2.182 1.565-2.741.157-.119.32-.234.472-.341l.074-.052c.177-.126.34-.243.493-.363.306-.242.532-.47.682-.724.31-.53.229-.886.093-1.094-.158-.244-.486-.435-.893-.435ZM15.26 4.71a1.75 1.75 0 0 0 .847 1.318L10.987 12l5.583 6.512a.75.75 0 1 1-1.14.976L10 13.152l-5.43 6.336a.75.75 0 0 1-1.14-.976L9.013 12 3.431 5.488a.75.75 0 1 1 1.139-.976L10 10.848l5.26-6.137Z" fill="#212121"/>
</svg>
